images/instagram.svg

<svg width="22" height="22" viewBox="0 0 22 22" fill="none" xmlns="http://www.w3.org/2000/svg">
<g clip-path="url(#clip0_419_28)">
<path d="M14.6664 10.9999V10.999C14.6664 10.1507 14.3722 9.32867 13.8341 8.67295C13.296 8.01723 12.5471 7.56839 11.7151 7.40289C10.8832 7.23739 10.0195 7.36548 9.27141 7.76533C8.52329 8.16517 7.93695 8.81205 7.61228 9.59573C7.28762 10.3794 7.24472 11.2514 7.49089 12.0632C7.73707 12.875 8.25709 13.5763 8.96235 14.0476C9.66761 14.519 10.5145 14.7312 11.3587 14.6482C12.2029 14.5651 12.9922 14.1919 13.5921 13.5922C13.9325 13.2632 14.203 12.8689 14.3876 12.4329C14.5722 11.997 14.667 11.5283 14.6664 11.0549L14.6655 10.9971V10.9999H14.6664ZM16.6464 10.9999C16.642 12.3001 16.1872 13.5587 15.3594 14.5614C14.5315 15.564 13.3818 16.2489 12.1059 16.4993C10.83 16.7497 9.5067 16.5503 8.36126 15.935C7.21583 15.3196 6.31901 14.3264 5.82344 13.1242C5.32787 11.9221 5.26416 10.5854 5.64316 9.34163C6.02216 8.09783 6.82045 7.02379 7.90217 6.3023C8.98389 5.5808 10.2822 5.25643 11.5761 5.38439C12.8701 5.51235 14.0797 6.08474 14.9992 7.00413C15.5213 7.51079 15.9363 8.11723 16.2194 8.78743C16.5026 9.45763 16.6481 10.1779 16.6473 10.9055L16.6464 11.0054V11.0008V10.9999ZM18.1928 5.12771V5.12955C18.1929 5.43494 18.0871 5.73092 17.8935 5.96705C17.6998 6.20319 17.4303 6.36486 17.1308 6.42453C16.8312 6.4842 16.5203 6.43817 16.2509 6.29429C15.9816 6.15041 15.7704 5.91757 15.6535 5.63546C15.5365 5.35334 15.521 5.0394 15.6096 4.74713C15.6982 4.45487 15.8853 4.20235 16.1392 4.03262C16.3931 3.86289 16.698 3.78644 17.0019 3.8163C17.3058 3.84616 17.59 3.98048 17.806 4.19638C18.0407 4.42646 18.1864 4.7473 18.1864 5.10205V5.12863V5.12771H18.1928ZM11.0062 1.97438L9.91076 1.96705C9.24709 1.96216 8.74323 1.96216 8.39918 1.96705C8.05512 1.97194 7.59434 1.9863 7.01684 2.01013C6.48059 2.02846 5.97184 2.08163 5.47409 2.16596L5.54101 2.1568C5.15143 2.22096 4.80584 2.31263 4.47493 2.43455L4.51434 2.42171C4.04685 2.60964 3.62172 2.88928 3.26402 3.24414C2.90633 3.599 2.62332 4.02189 2.43168 4.48788L2.42251 4.51263C2.30485 4.83467 2.21769 5.16704 2.16218 5.50538L2.15759 5.5393C2.07606 6.02096 2.02737 6.50761 2.01184 6.99588L2.01093 7.01513C1.98709 7.59324 1.97273 8.05402 1.96784 8.39746C1.96295 8.74091 1.96295 9.24477 1.96784 9.90905C1.97273 10.5733 1.97518 10.9385 1.97518 11.0045C1.97518 11.0705 1.97273 11.4356 1.96784 12.0999C1.96295 12.7642 1.96295 13.268 1.96784 13.6115C1.97273 13.9549 1.98709 14.4157 2.01093 14.9938C2.02926 15.53 2.08243 16.0388 2.16676 16.5365L2.15759 16.4696C2.22176 16.8592 2.31343 17.2048 2.43534 17.5357L2.42251 17.4963C2.61044 17.9638 2.89008 18.3889 3.24494 18.7466C3.5998 19.1043 4.02269 19.3873 4.48868 19.579L4.51343 19.5881C4.80493 19.6972 5.15051 19.7889 5.50618 19.8485L5.54009 19.853C5.97001 19.9282 6.47876 19.9814 6.99576 19.9988L7.01501 19.9997C7.59312 20.0235 8.0539 20.0379 8.39734 20.0428C8.74079 20.0477 9.24465 20.0477 9.90893 20.0428L10.9979 20.0208L12.0933 20.0281C12.757 20.033 13.2609 20.033 13.6049 20.0281C13.949 20.0232 14.4098 20.0089 14.9873 19.985C15.5235 19.9667 16.0323 19.9135 16.53 19.8292L16.4631 19.8384C16.8527 19.7742 17.1983 19.6825 17.5292 19.5606L17.4898 19.5735C17.9573 19.3855 18.3824 19.1059 18.7401 18.751C19.0978 18.3962 19.3808 17.9733 19.5724 17.5073L19.5816 17.4825C19.6907 17.191 19.7823 16.8455 19.8419 16.4898L19.8465 16.4559C19.9217 16.026 19.9748 15.5172 19.9923 15.0002L19.9932 14.981C20.017 14.4029 20.0314 13.9421 20.0363 13.5986C20.0411 13.2552 20.0411 12.7513 20.0363 12.087C20.0314 11.4228 20.0289 11.0576 20.0289 10.9916C20.0289 10.9256 20.0314 10.5605 20.0363 9.89621C20.0411 9.23193 20.0411 8.72807 20.0363 8.38463C20.0314 8.04119 20.017 7.58041 19.9932 7.0023C19.9748 6.46605 19.9217 5.9573 19.8373 5.45955L19.8465 5.52646C19.7884 5.16301 19.6954 4.806 19.5688 4.46038L19.5816 4.4998C19.3937 4.0323 19.114 3.60717 18.7592 3.24948C18.4043 2.89179 17.9814 2.60877 17.5154 2.41713L17.4907 2.40796C17.1686 2.2903 16.8363 2.20314 16.4979 2.14763L16.464 2.14305C15.9826 2.06156 15.4963 2.01286 15.0083 1.9973L14.9891 1.99638C14.411 1.97255 13.9502 1.95819 13.6068 1.9533C13.2633 1.94841 12.7595 1.94841 12.0952 1.9533L11.0062 1.97438ZM21.9998 10.9999C21.9998 13.1864 21.9753 14.6999 21.9264 15.5401C21.9698 16.3917 21.8337 17.2429 21.527 18.0385C21.2204 18.8341 20.75 19.5564 20.1463 20.1586C19.5426 20.7608 18.8192 21.2294 18.0228 21.5341C17.2265 21.8389 16.375 21.9729 15.5235 21.9275L15.5382 21.9284C14.6979 21.9773 13.1845 22.0017 10.9979 22.0017C8.81137 22.0017 7.29796 21.9773 6.45768 21.9284C5.60611 21.9717 4.75494 21.8356 3.95933 21.529C3.16371 21.2223 2.4414 20.7519 1.83921 20.1483C1.23702 19.5446 0.768378 18.8211 0.463658 18.0248C0.158939 17.2284 0.0249393 16.3769 0.0703437 15.5255L0.0694271 15.5401C0.0205382 14.6999 -0.00390625 13.1864 -0.00390625 10.9999C-0.00390625 8.81332 0.0205382 7.29991 0.0694271 6.45963C0.0260976 5.60806 0.162171 4.75689 0.468831 3.96128C0.77549 3.16566 1.24589 2.44336 1.84955 1.84116C2.45322 1.23897 3.17667 0.770331 3.97303 0.465611C4.76939 0.160892 5.62088 0.0268924 6.47234 0.0722969L6.45768 0.0713802C7.29796 0.0224913 8.81137 -0.00195312 10.9979 -0.00195312C13.1845 -0.00195312 14.6979 0.0224913 15.5382 0.0713802C16.3897 0.0280507 17.2409 0.164125 18.0365 0.470784C18.8321 0.777443 19.5544 1.24784 20.1566 1.85151C20.7588 2.45517 21.2275 3.17862 21.5322 3.97498C21.8369 4.77134 21.9709 5.62284 21.9255 6.4743L21.9264 6.45963C21.9753 7.2993 21.9998 8.81271 21.9998 10.9999Z" fill="white"/>
</g>
<defs>
<clipPath id="clip0_419_28">
<rect width="22" height="22" fill="white"/>
</clipPath>
</defs>
</svg>

<svg width="22" height="22" fill="none" xmlns="http://www.w3.org/2000/svg"><g clip-path="url(#a)"><path d="M14.666 11v-.001a3.667 3.667 0 1 0-1.074 2.593 3.522 3.522 0 0 0 1.074-2.537v-.058V11Zm1.98 0A5.624 5.624 0 1 1 15 7.004a5.428 5.428 0 0 1 1.648 3.902v.1V11Zm1.547-5.872v.002a1.32 1.32 0 1 1-.387-.934c.235.23.38.551.38.906v.027-.001h.007Zm-7.187-3.154-1.095-.007a75.92 75.92 0 0 0-1.512 0c-.344.005-.805.02-1.382.043-.536.018-1.045.072-1.543.156l.067-.01c-.39.065-.735.157-1.066.279l.04-.013a3.774 3.774 0 0 0-2.083 2.066l-.01.025a5.477 5.477 0 0 0-.26.992l-.004.034c-.082.482-.13.969-.146 1.457l-.001.02a53.935 53.935 0 0 0-.043 1.381c-.005.344-.005.848 0 1.512l.007 1.095-.007 1.096a75.907 75.907 0 0 0 0 1.511c.005.344.02.805.043 1.383.018.536.071 1.045.156 1.543l-.01-.067c.065.39.156.735.278 1.066l-.012-.04a3.774 3.774 0 0 0 2.066 2.083l.024.01c.292.108.638.2.993.26l.034.004c.43.075.939.128 1.456.146h.019c.578.024 1.039.039 1.382.044.344.005.848.005 1.512 0l1.089-.022 1.095.007c.664.005 1.168.005 1.512 0 .344-.005.805-.02 1.382-.043a11.536 11.536 0 0 0 1.543-.156l-.067.01c.39-.065.735-.156 1.066-.278l-.04.012a3.775 3.775 0 0 0 2.083-2.066l.01-.024c.109-.292.2-.637.26-.993l.005-.034c.075-.43.128-.939.145-1.456l.001-.019a54.17 54.17 0 0 0 .043-1.382c.005-.344.005-.848 0-1.512l-.007-1.095.007-1.096c.005-.664.005-1.168 0-1.511-.005-.344-.019-.805-.043-1.383a11.536 11.536 0 0 0-.156-1.542l.01.066a5.729 5.729 0 0 0-.278-1.066l.013.04a3.774 3.774 0 0 0-2.067-2.083l-.024-.009a5.477 5.477 0 0 0-.993-.26l-.034-.005a10.78 10.78 0 0 0-1.456-.146h-.019a53.976 53.976 0 0 0-1.382-.044 75.907 75.907 0 0 0-1.512 0l-1.089.021ZM22 11c0 2.186-.025 3.7-.074 4.54a6.085 6.085 0 0 1-6.402 6.387l.014.001c-.84.05-2.354.074-4.54.074-2.187 0-3.7-.025-4.54-.074A6.088 6.088 0 0 1 .07 15.525v.015C.02 14.7-.005 13.186-.005 11c0-2.187.025-3.7.073-4.54A6.087 6.087 0 0 1 6.472.072h-.014c.84-.05 2.353-.074 4.54-.074s3.7.024 4.54.073a6.087 6.087 0 0 1 6.387 6.403l.001-.014c.05.84.074 2.353.074 4.54Z" fill="#fff"/></g><defs><clipPath id="a"><path fill="#fff" d="M0 0h22v22H0z"/></clipPath></defs></svg>
